usr/share/icons/biglinux-icons-material/scalable/mimetypes/application-x-java-archive.svg

<svg width="24" height="24" viewBox="0 0 24 24" fill="none" xmlns="http://www.w3.org/2000/svg">
<rect x="1" y="1" width="22" height="22" rx="6.6" fill="url(#paint0_radial_1_847)"/>
<path opacity="0.75" fill-rule="evenodd" clip-rule="evenodd" d="M16.564 7C17.1507 9.3113 14.4945 10.0094 13.5359 11.4489C12.8831 12.4296 13.8563 13.4834 15.1832 14.6806C14.6658 13.5109 12.911 12.4876 15.1839 10.6924C18.0182 8.4552 16.564 7 16.564 7ZM18.3175 9.85965C18.3176 9.85965 13.5249 11.0563 15.8138 13.6938C16.4895 14.4716 15.6366 15.171 15.6366 15.171C15.6366 15.171 17.3512 14.2861 16.564 13.1772C15.8284 12.1437 15.2644 11.6302 18.3175 9.85965ZM19.1663 14.571C18.9979 14.5715 18.8191 14.6007 18.6357 14.6652C18.4886 14.7173 18.4114 14.8383 18.4114 14.8383C18.4114 14.8383 18.5044 14.8009 18.7117 14.7576C19.5594 14.581 20.7741 15.8925 18.1473 17.2571C18.1352 17.2896 18.0948 17.3261 18.0949 17.3261C21.2187 16.5048 20.5376 14.5683 19.1663 14.571ZM13.5378 14.7041C13.332 14.6994 12.4424 14.7126 11.3794 15.2268C9.94225 15.9217 14.9336 16.2383 17.518 15.5586C17.7867 15.3753 18.1578 15.2161 18.1578 15.2161C18.1578 15.2161 17.1008 15.405 16.0477 15.4934C14.7587 15.6016 13.3759 15.6229 12.6819 15.53C11.0385 15.3103 13.5827 14.7059 13.5827 14.7059C13.5827 14.7059 13.5672 14.7047 13.5378 14.7041ZM12.9901 16.2941C10.6194 17.0809 14.3099 17.9738 17.6231 17.0046C17.2711 16.8806 17.0476 16.6535 17.0476 16.6535C15.4276 16.9652 14.4918 16.9553 13.3065 16.8329C12.3902 16.7382 12.9901 16.2941 12.9901 16.2941ZM13.3252 17.8267C11.1727 18.4281 14.6349 19.6706 17.3758 18.4962C16.9269 18.3218 16.605 18.1204 16.605 18.1204C15.3827 18.3514 14.8157 18.3696 13.7064 18.243C12.7907 18.1379 13.3252 17.8267 13.3252 17.8267ZM11.8301 18.8428C10.8634 18.8726 8.9729 19.7418 10.7018 20.0223C16.2896 20.928 20.8876 19.6144 19.4384 18.9604C19.4384 18.9604 19.8343 19.2868 19.0025 19.5392C17.4209 20.0183 12.4183 20.1628 11.0285 19.5583C10.5293 19.3409 11.4658 19.0396 11.7604 18.976C12.0676 18.9095 12.2431 18.9217 12.2431 18.9217C12.1563 18.8605 12.0091 18.8373 11.8301 18.8428ZM20.3256 19.6735C20.3256 19.6735 20.1494 20.1257 18.2422 20.4845C16.0903 20.8896 13.4358 20.8424 11.8619 20.5825C11.8619 20.5825 12.1843 20.8494 13.8411 20.9561C16.362 21.1172 20.2342 20.8664 20.3256 19.6735Z" fill="white"/>
<path d="M6 13.9941V17.2427C6 17.3812 6.11145 17.4926 6.24989 17.4926H7.74922C7.88766 17.4926 7.9991 17.3812 7.9991 17.2427V13.9941H6ZM6.49978 15.9932H7.49933V16.9927H6.49978V15.9932Z" fill="#FAFAFA"/>
<path d="M7.00045 1V1.99955H8V1H7.00045ZM7.00045 1.99955H6.00089V2.99911H7.00045V1.99955ZM7.00045 2.99911V3.99866H8V2.99911H7.00045ZM7.00045 3.99866H6.00089V4.99821H7.00045V3.99866ZM7.00045 4.99821V5.99777H8V4.99821H7.00045ZM7.00045 5.99777H6.00089V6.99732H7.00045V5.99777ZM7.00045 6.99732V7.99687H8V6.99732H7.00045ZM7.00045 7.99687H6.00089V8.99643H7.00045V7.99687ZM7.00045 8.99643V9.99598H8V8.99643H7.00045ZM7.00045 9.99598H6.00089V10.9955H7.00045V9.99598ZM7.00045 10.9955V11.9951H8V10.9955H7.00045ZM7.00045 11.9951H6.00089V12.9946H7.00045V11.9951ZM7.00045 12.9946V13.9942H8V12.9946H7.00045Z" fill="#FAFAFA"/>
<defs>
<radialGradient id="paint0_radial_1_847" cx="0" cy="0" r="1" gradientUnits="userSpaceOnUse" gradientTransform="translate(17.5 1) rotate(116.565) scale(24.5967)">
<stop stop-color="#FFB878"/>
<stop offset="1" stop-color="#E6842B"/>
</radialGradient>
</defs>
</svg>

<svg xmlns="http://www.w3.org/2000/svg" width="24" height="24" fill="none"><rect width="22" height="22" x="1" y="1" fill="url(#a)" rx="6.6"/><path fill="#fff" fill-rule="evenodd" d="M16.564 7c.587 2.311-2.07 3.01-3.028 4.449-.653.98.32 2.034 1.647 3.232-.517-1.17-2.272-2.193 0-3.989C18.019 8.455 16.565 7 16.565 7Zm1.753 2.86s-4.792 1.196-2.503 3.834c.675.778-.177 1.477-.177 1.477s1.714-.885.927-1.994c-.736-1.033-1.3-1.547 1.753-3.317Zm.85 4.711c-.17 0-.348.03-.531.094-.147.052-.225.173-.225.173s.093-.037.3-.08c.848-.177 2.063 1.135-.564 2.5-.012.032-.052.068-.052.068 3.124-.821 2.443-2.758 1.071-2.755Zm-5.63.133c-.205-.005-1.095.009-2.158.523-1.437.695 3.555 1.011 6.139.332.269-.184.64-.343.64-.343s-1.057.189-2.11.277c-1.29.109-2.672.13-3.366.037-1.643-.22.9-.824.9-.824l-.044-.002Zm-.547 1.59c-2.37.787 1.32 1.68 4.633.71a1.653 1.653 0 0 1-.575-.35c-1.62.311-2.556.301-3.741.179-.917-.095-.317-.539-.317-.539Zm.335 1.533c-2.152.601 1.31 1.844 4.05.67-.448-.175-.77-.377-.77-.377-1.222.231-1.79.25-2.899.123-.915-.105-.38-.416-.38-.416Zm-1.495 1.016c-.967.03-2.857.899-1.128 1.18 5.588.905 10.186-.409 8.736-1.063 0 0 .396.327-.435.58-1.582.478-6.585.623-7.975.018-.499-.217.438-.518.732-.582.308-.066.483-.054.483-.054-.087-.062-.234-.085-.413-.08Zm8.496.83s-.177.453-2.084.812c-2.152.405-4.806.357-6.38.098 0 0 .322.266 1.98.373 2.52.161 6.392-.09 6.484-1.282Z" clip-rule="evenodd" opacity=".75"/><path fill="#FAFAFA" d="M6 13.994v3.249c0 .138.111.25.25.25h1.5a.25.25 0 0 0 .25-.25v-3.249H6Zm.5 2h1v.999h-1v-1Z"/><path fill="#FAFAFA" d="M7 1v1h1V1H7Zm0 1H6v1h1V2Zm0 1v.999h1v-1H7Zm0 .999H6v1h1v-1Zm0 1v.999h1v-1H7Zm0 .999H6v1h1v-1Zm0 1v.999h1v-1H7Zm0 .999H6v1h1v-1Zm0 1v.999h1v-1H7Zm0 .999H6v1h1v-1Zm0 1v1h1v-1H7Zm0 1H6v.999h1v-1Zm0 .999v1h1v-1H7Z"/><defs><radialGradient id="a" cx="0" cy="0" r="1" gradientTransform="rotate(116.565 8.441 5.908) scale(24.5967)" gradientUnits="userSpaceOnUse"><stop stop-color="#FFB878"/><stop offset="1" stop-color="#E6842B"/></radialGradient></defs></svg>
